X:130
T: DA KOMMT JA DER LIEBLICHE MAI
N: F0250
O: Europa, Mitteleuropa, Deutschland
R: Jugend - Lied, Jahreszeiten, Fruehling
M: 6/8
L: 1/16
K: G
D2 | B2B2B2A2A2A2 | c6
B6 | A2A2B2c2A2F2 | G6z4
FG | A2A2A2B2A2
FG | A2A2A2B2A2
B2 | B6G4B2 | d2B2G2D4
d2 | B4d2B4d2 | B4z6
B2 | B2B2B2B2c2d2 | e4z2
e6 | d3BG2c2A2F2 | G4z6

@@@ Tune index: 5561
